X: 779
T: Zhankai dashengchan
L: 1/8
M: 2/4
K: Bb
c'> c' c' c' [I:setbarnb 1]| 
c'2b g | 
c'3d' | 
c'2z2 | 
b2b2 | 
c'2b g | 
f3e | 
f4 | 
f2g b | 
c'2f' d' | 
g b g f | 
e3f | 
b2a g | 
f2b d | 
c3B | 
c4 |]

@@@ Tune index: 9653
